home/.icons/Gruvbox-Plus-Dark/apps/16/electrip.svg

<svg width="16" height="16" version="1.1" xmlns="http://www.w3.org/2000/svg">
  <defs>
    <style type="text/css" id="current-color-scheme">.ColorScheme-Text { color:#ebdbb2; } .ColorScheme-Highlight { color:#458588; }</style>
  </defs>
  <path class="ColorScheme-Text" fill="currentColor" d="m3.39 2.878c-0.03 0-0.06 0-0.09 1e-3 -0.239 6e-3 -0.481 0.049-0.708 0.101-0.213 0.048-0.441 0.13-0.585 0.293-0.227 0.255-0.345 0.964-0.345 0.964s-0.664 0.444-0.895 0.759c-0.219 0.296-0.333 0.66-0.432 1.015-0.065 0.234-0.08 0.481-0.102 0.723-0.146 1.602-0.314 3.06-0.19 4.823 0.045 0.628 0.319 0.937 0.689 1.222 0.343 0.265 0.829 0.389 1.258 0.328 0.336-0.048 0.636-0.281 0.875-0.522 0.498-0.504 0.967-1.751 1.071-1.837 0.103-0.087 0.241-0.294 0.241-0.294s0.33 0.299 0.533 0.379c0.286 0.112 0.609 0.162 0.913 0.121 0.395-0.053 0.799-0.206 1.102-0.465 0.216-0.185 0.449-0.724 0.449-0.724h1.653s0.232 0.539 0.448 0.724c0.303 0.259 0.707 0.412 1.102 0.465 0.304 0.041 0.627-9e-3 0.913-0.121 0.203-0.08 0.534-0.379 0.534-0.379s0.137 0.207 0.24 0.294c0.104 0.086 0.572 1.333 1.07 1.837 0.239 0.241 0.54 0.474 0.876 0.522 0.429 0.061 0.915-0.063 1.258-0.328 0.37-0.285 0.644-0.594 0.689-1.222 0.124-1.763-0.044-3.221-0.19-4.823-0.022-0.242-0.038-0.489-0.103-0.723-0.099-0.355-0.212-0.719-0.431-1.015-0.231-0.315-0.895-0.759-0.895-0.759s-0.119-0.709-0.346-0.964c-0.144-0.163-0.371-0.245-0.584-0.293-0.454-0.104-0.97-0.17-1.396 0.018-0.245 0.108-0.412 0.378-0.55 0.585s-0.207 0.861-0.207 0.861h-6.51s-0.069-0.654-0.207-0.861-0.305-0.477-0.55-0.585c-0.186-0.082-0.39-0.117-0.598-0.12zm9.719 1.719c0.324 0 0.586 0.263 0.586 0.587s-0.262 0.586-0.586 0.586-0.587-0.262-0.587-0.586 0.263-0.587 0.587-0.587zm-10.71 0.332h0.944v0.702s-0.342 0.451-0.472 0.445c-0.138-6e-3 -0.472-0.445-0.472-0.445zm9.284 0.914c0.324 0 0.587 0.262 0.587 0.586s-0.263 0.587-0.587 0.587c-0.323 0-0.586-0.263-0.586-0.587s0.263-0.586 0.586-0.586zm2.846 0c0.324 0 0.587 0.262 0.587 0.586s-0.263 0.587-0.587 0.587c-0.323 0-0.586-0.263-0.586-0.587s0.263-0.586 0.586-0.586zm-13.05 0.043h0.702s0.439 0.335 0.445 0.473c5e-3 0.129-0.445 0.471-0.445 0.471h-0.702zm2.088 0h0.702v0.944h-0.702s-0.45-0.342-0.445-0.471c6e-3 -0.138 0.445-0.473 0.445-0.473zm5.544 0.251 0.918 0.301-0.918 0.302zm-3.209 0.021h0.915v0.56h-0.915zm-3.028 0.483c0.13-5e-3 0.472 0.445 0.472 0.445v0.702h-0.944v-0.702s0.334-0.439 0.472-0.445zm10.24 0.448c0.324 0 0.586 0.263 0.586 0.587s-0.262 0.586-0.586 0.586-0.586-0.262-0.586-0.586 0.262-0.587 0.586-0.587zm-7.729 1.025c0.633 0 1.145 0.513 1.145 1.145 0 0.633-0.512 1.146-1.145 1.146-0.632 0-1.145-0.513-1.145-1.146 0-0.632 0.513-1.145 1.145-1.145zm5.17 0c0.633 0 1.145 0.513 1.145 1.145 0 0.633-0.512 1.146-1.145 1.146-0.632 0-1.145-0.513-1.145-1.146 0-0.632 0.513-1.145 1.145-1.145z"/>
</svg>

<svg xmlns="http://www.w3.org/2000/svg" style="isolation:isolate" width="16" height="16" viewBox="0 0 16 16">
 <defs>
  <style id="current-color-scheme" type="text/css">
   .ColorScheme-Text { color:#ebdbb2; } .ColorScheme-Highlight { color:#458588; }
  </style>
  <linearGradient id="arrongin" x1="0%" x2="0%" y1="0%" y2="100%">
   <stop offset="0%" style="stop-color:#d79921; stop-opacity:1"/>
   <stop offset="100%" style="stop-color:#b57614; stop-opacity:1"/>
  </linearGradient>
  <linearGradient id="aurora" x1="0%" x2="0%" y1="0%" y2="100%">
   <stop offset="0%" style="stop-color:#83a598; stop-opacity:1"/>
   <stop offset="100%" style="stop-color:#b16286; stop-opacity:1"/>
  </linearGradient>
  <linearGradient id="fitdance" x1="0%" x2="0%" y1="0%" y2="100%">
   <stop offset="0%" style="stop-color:#8ec07c; stop-opacity:1"/>
   <stop offset="100%" style="stop-color:#458588; stop-opacity:1"/>
  </linearGradient>
  <linearGradient id="oomox" x1="0%" x2="0%" y1="0%" y2="100%">
   <stop offset="0%" style="stop-color:#458588; stop-opacity:1"/>
   <stop offset="100%" style="stop-color:#928374; stop-opacity:1"/>
  </linearGradient>
  <linearGradient id="rainblue" x1="0%" x2="0%" y1="0%" y2="100%">
   <stop offset="0%" style="stop-color:#b8bb26; stop-opacity:1"/>
   <stop offset="100%" style="stop-color:#076678; stop-opacity:1"/>
  </linearGradient>
  <linearGradient id="sunrise" x1="0%" x2="0%" y1="0%" y2="100%">
   <stop offset="0%" style="stop-color: #fe8019; stop-opacity:1"/>
   <stop offset="100%" style="stop-color: #fabd2f; stop-opacity:1"/>
  </linearGradient>
  <linearGradient id="telinkrin" x1="0%" x2="0%" y1="0%" y2="100%">
   <stop offset="0%" style="stop-color: #83a598; stop-opacity:1"/>
   <stop offset="100%" style="stop-color: #83a598; stop-opacity:1"/>
  </linearGradient>
  <linearGradient id="60spsycho" x1="0%" x2="0%" y1="0%" y2="100%">
   <stop offset="0%" style="stop-color: #fb4934; stop-opacity:1"/>
   <stop offset="25%" style="stop-color: #fabd2f; stop-opacity:1"/>
   <stop offset="50%" style="stop-color: #fe8019; stop-opacity:1"/>
   <stop offset="100%" style="stop-color: #689d6a; stop-opacity:1"/>
  </linearGradient>
  <linearGradient id="90ssummer" x1="0%" x2="0%" y1="0%" y2="100%">
   <stop offset="0%" style="stop-color: #b16286; stop-opacity:1"/>
   <stop offset="20%" style="stop-color: #8ec07c; stop-opacity:1"/>
   <stop offset="50%" style="stop-color: #fabd2f; stop-opacity:1"/>
   <stop offset="100%" style="stop-color: #458588; stop-opacity:1"/>
  </linearGradient>
  <linearGradient id="cyberneon" x1="0%" x2="0%" y1="0%" y2="100%">
    <stop offset="0" style="stop-color:#83a598; stop-opacity:1"/>
    <stop offset="1" style="stop-color:#b16286; stop-opacity:1"/>
  </linearGradient>
  <clipPath id="_clipPath_u7OREKQ299cAZene9gV0M3qac3gb8giN">
   <rect width="16" height="16"/>
  </clipPath>
 </defs>
 <g clip-path="url(#_clipPath_u7OREKQ299cAZene9gV0M3qac3gb8giN)">
  <rect style="fill:currentColor" class="ColorScheme-Text" fill-opacity="0" width="16" height="16"/>
  <path style="fill:currentColor" class="ColorScheme-Text" d="M 3.39 2.878 C 3.36 2.878 3.33 2.878 3.3 2.879 C 3.061 2.885 2.819 2.928 2.592 2.98 C 2.379 3.028 2.151 3.11 2.007 3.273 C 1.78 3.528 1.662 4.237 1.662 4.237 C 1.662 4.237 0.998 4.681 0.767 4.996 C 0.548 5.292 0.434 5.656 0.335 6.011 C 0.27 6.245 0.255 6.492 0.233 6.734 C 0.087 8.336 -0.081 9.794 0.043 11.557 C 0.088 12.185 0.362 12.494 0.732 12.779 C 1.075 13.044 1.561 13.168 1.99 13.107 C 2.326 13.059 2.626 12.826 2.865 12.585 C 3.363 12.081 3.832 10.834 3.936 10.748 C 4.039 10.661 4.177 10.454 4.177 10.454 C 4.177 10.454 4.507 10.753 4.71 10.833 C 4.996 10.945 5.319 10.995 5.623 10.954 C 6.018 10.901 6.422 10.748 6.725 10.489 C 6.941 10.304 7.174 9.765 7.174 9.765 L 8.827 9.765 C 8.827 9.765 9.059 10.304 9.275 10.489 C 9.578 10.748 9.982 10.901 10.377 10.954 C 10.681 10.995 11.004 10.945 11.29 10.833 C 11.493 10.753 11.824 10.454 11.824 10.454 C 11.824 10.454 11.961 10.661 12.064 10.748 C 12.168 10.834 12.636 12.081 13.134 12.585 C 13.373 12.826 13.674 13.059 14.01 13.107 C 14.439 13.168 14.925 13.044 15.268 12.779 C 15.638 12.494 15.912 12.185 15.957 11.557 C 16.081 9.794 15.913 8.336 15.767 6.734 C 15.745 6.492 15.729 6.245 15.664 6.011 C 15.565 5.656 15.452 5.292 15.233 4.996 C 15.002 4.681 14.338 4.237 14.338 4.237 C 14.338 4.237 14.219 3.528 13.992 3.273 C 13.848 3.11 13.621 3.028 13.408 2.98 C 12.954 2.876 12.438 2.81 12.012 2.998 C 11.767 3.106 11.6 3.376 11.462 3.583 C 11.324 3.79 11.255 4.444 11.255 4.444 L 8.861 4.435 L 8.861 4.427 L 8.001 4.43 L 7.139 4.427 L 7.139 4.435 L 4.745 4.444 C 4.745 4.444 4.676 3.79 4.538 3.583 C 4.4 3.376 4.233 3.106 3.988 2.998 C 3.802 2.916 3.598 2.881 3.39 2.878 L 3.39 2.878 Z M 13.109 4.597 C 13.433 4.597 13.695 4.86 13.695 5.184 C 13.695 5.508 13.433 5.77 13.109 5.77 C 12.785 5.77 12.522 5.508 12.522 5.184 C 12.522 4.86 12.785 4.597 13.109 4.597 Z M 2.402 4.929 L 3.346 4.929 L 3.346 5.631 C 3.346 5.631 3.004 6.082 2.874 6.076 C 2.736 6.07 2.402 5.631 2.402 5.631 L 2.402 4.929 Z M 11.686 5.843 C 12.01 5.843 12.273 6.105 12.273 6.429 C 12.273 6.753 12.01 7.016 11.686 7.016 C 11.363 7.016 11.1 6.753 11.1 6.429 C 11.1 6.105 11.363 5.843 11.686 5.843 Z M 14.532 5.843 C 14.856 5.843 15.119 6.105 15.119 6.429 C 15.119 6.753 14.856 7.016 14.532 7.016 C 14.209 7.016 13.946 6.753 13.946 6.429 C 13.946 6.105 14.209 5.843 14.532 5.843 Z M 1.479 5.886 L 2.181 5.886 C 2.181 5.886 2.62 6.221 2.626 6.359 C 2.631 6.488 2.181 6.83 2.181 6.83 L 1.479 6.83 L 1.479 5.886 Z M 3.567 5.886 L 4.269 5.886 L 4.269 6.83 L 3.567 6.83 C 3.567 6.83 3.117 6.488 3.122 6.359 C 3.128 6.221 3.567 5.886 3.567 5.886 L 3.567 5.886 Z M 9.111 6.137 L 10.029 6.438 L 9.111 6.74 L 9.111 6.137 Z M 5.902 6.158 L 6.817 6.158 L 6.817 6.718 L 5.902 6.718 L 5.902 6.158 Z M 2.874 6.641 C 3.004 6.636 3.346 7.086 3.346 7.086 L 3.346 7.788 L 2.402 7.788 L 2.402 7.086 C 2.402 7.086 2.736 6.647 2.874 6.641 L 2.874 6.641 Z M 13.109 7.089 C 13.433 7.089 13.695 7.352 13.695 7.676 C 13.695 8 13.433 8.262 13.109 8.262 C 12.785 8.262 12.523 8 12.523 7.676 C 12.523 7.352 12.785 7.089 13.109 7.089 Z M 5.38 8.114 C 6.013 8.114 6.525 8.627 6.525 9.259 C 6.525 9.892 6.013 10.405 5.38 10.405 C 4.748 10.405 4.235 9.892 4.235 9.259 C 4.235 8.627 4.748 8.114 5.38 8.114 Z M 10.55 8.114 C 11.183 8.114 11.695 8.627 11.695 9.259 C 11.695 9.892 11.183 10.405 10.55 10.405 C 9.918 10.405 9.405 9.892 9.405 9.259 C 9.405 8.627 9.918 8.114 10.55 8.114 Z"/>
 </g>
</svg>
